img/icones/eletrica.svg

<svg width="32" height="32" viewBox="0 0 32 32" fill="none" xmlns="http://www.w3.org/2000/svg">
<path d="M25.333 9.33301H24.24L21.973 3.09301C21.7854 2.57856 21.4446 2.134 20.9965 1.81929C20.5484 1.50458 20.0146 1.33486 19.467 1.33301H17.333C16.6 1.33301 16 1.93301 16 2.66701C16 3.40001 16.6 4.00001 17.333 4.00001H19.467L21.413 9.33301H15L14.52 8.00001H14.64C15.373 8.00001 15.973 7.40001 15.973 6.66701C15.973 5.93301 15.373 5.33301 14.64 5.33301H10.667C9.933 5.33301 9.333 5.93301 9.333 6.66701C9.333 7.40001 9.933 8.00001 10.667 8.00001H11.667L14.093 14.667H13.2C12.613 11.693 10.12 9.49301 7 9.34701C3.267 9.16001 0 12.267 0 16C0 19.733 2.933 22.667 6.667 22.667C9.947 22.667 12.6 20.413 13.2 17.333H18.8C19.387 20.307 21.88 22.507 25 22.653C28.733 22.827 32 19.733 32 15.987C32 12.267 29.067 9.33301 25.333 9.33301V9.33301ZM8 17.333H10.427C9.867 18.973 8.293 20.107 6.4 19.987C4.413 19.867 2.76 18.187 2.667 16.187C2.573 13.853 4.36 12 6.667 12C7.49468 11.9922 8.30371 12.2458 8.97883 12.7247C9.65396 13.2036 10.1607 13.8833 10.427 14.667H8C7.267 14.667 6.667 15.267 6.667 16C6.667 16.733 7.267 17.333 8 17.333ZM18.8 14.667H16.933L15.96 12H20C19.3967 12.7828 18.9857 13.6963 18.8 14.667V14.667ZM25.173 20C23.12 19.92 21.387 18.173 21.333 16.107C21.307 14.827 21.853 13.707 22.733 12.96L23.56 15.227C23.6192 15.3919 23.7104 15.5434 23.8284 15.6729C23.9463 15.8024 24.0887 15.9073 24.2473 15.9817C24.4059 16.056 24.5776 16.0983 24.7526 16.1061C24.9276 16.1138 25.1024 16.087 25.267 16.027C25.4319 15.9678 25.5834 15.8766 25.7129 15.7586C25.8424 15.6407 25.9473 15.4983 26.0217 15.3397C26.096 15.1811 26.1383 15.0094 26.1461 14.8344C26.1538 14.6594 26.127 14.4846 26.067 14.32L25.227 12.013L25.24 12C25.7746 11.9817 26.3073 12.072 26.806 12.2654C27.3047 12.4587 27.7591 12.7511 28.1416 13.125C28.5242 13.4988 28.827 13.9464 29.0317 14.4405C29.2365 14.9346 29.339 15.4652 29.333 16C29.333 18.293 27.493 20.08 25.173 20V20ZM14.667 26.667H9.333L17.333 30.667V28H22.667L14.667 24V26.667Z" fill="url(#paint0_linear_61_37)"/>
<defs>
<linearGradient id="paint0_linear_61_37" x1="16" y1="1.33301" x2="16" y2="30.667" gradientUnits="userSpaceOnUse">
<stop stop-color="#FFC700"/>
<stop offset="1" stop-color="#FF9500"/>
</linearGradient>
</defs>
</svg>

<svg width="32" height="32" fill="none" xmlns="http://www.w3.org/2000/svg">
  <path d="M25.333 9.333H24.24l-2.267-6.24a2.677 2.677 0 0 0-2.506-1.76h-2.134c-.733 0-1.333.6-1.333 1.334C16 3.4 16.6 4 17.333 4h2.134l1.946 5.333H15L14.52 8h.12c.733 0 1.333-.6 1.333-1.333 0-.734-.6-1.334-1.333-1.334h-3.973c-.734 0-1.334.6-1.334 1.334 0 .733.6 1.333 1.334 1.333h1l2.426 6.667H13.2c-.587-2.974-3.08-5.174-6.2-5.32C3.267 9.16 0 12.267 0 16c0 3.733 2.933 6.667 6.667 6.667 3.28 0 5.933-2.254 6.533-5.334h5.6c.587 2.974 3.08 5.174 6.2 5.32 3.733.174 7-2.92 7-6.666 0-3.72-2.933-6.654-6.667-6.654ZM8 17.333h2.427c-.56 1.64-2.134 2.774-4.027 2.654-1.987-.12-3.64-1.8-3.733-3.8C2.573 13.853 4.36 12 6.667 12a3.932 3.932 0 0 1 3.76 2.667H8c-.733 0-1.333.6-1.333 1.333s.6 1.333 1.333 1.333Zm10.8-2.666h-1.867L15.96 12H20a6.312 6.312 0 0 0-1.2 2.667ZM25.173 20c-2.053-.08-3.786-1.827-3.84-3.893-.026-1.28.52-2.4 1.4-3.147l.827 2.267a1.33 1.33 0 0 0 1.707.8 1.33 1.33 0 0 0 .8-1.707l-.84-2.307.013-.013a3.958 3.958 0 0 1 4.093 4c0 2.293-1.84 4.08-4.16 4Zm-10.506 6.667H9.333l8 4V28h5.334l-8-4v2.667Z" fill="url(#a)"/>
  <defs>
    <linearGradient id="a" x1="16" y1="1.333" x2="16" y2="30.667" gradientUnits="userSpaceOnUse">
      <stop stop-color="#FFBF00"/>
      <stop offset="1" stop-color="#F2A50C"/>
    </linearGradient>
  </defs>
</svg>
